icons/link-chart-16.svg

<?xml version="1.0" encoding="UTF-8"?><svg id="icons" xmlns="http://www.w3.org/2000/svg" viewBox="0 0 16 16"><path d="M13.5,6c-1.2074,0-2.21735,.86066-2.44946,2.00049H4.9494c-.03668-.17993-.09607-.35083-.16925-.51459l3.02411-2.16028c.44647,.41492,1.03967,.67438,1.69574,.67438,1.37842,0,2.49-1.12158,2.49-2.5s-1.11158-2.5-2.49-2.5-2.5,1.12158-2.5,2.5c0,.36182,.08093,.7038,.21985,1.01459l-3.02411,2.16028c-.44647-.41492-1.03967-.67438-1.69574-.67438-1.37842,0-2.5,1.12158-2.5,2.5s1.12158,2.49951,2.5,2.49951c.65613,0,1.24939-.25897,1.69586-.67395l3.02374,2.15985c-.13879,.31067-.2196,.65247-.2196,1.0141,0,1.37842,1.12158,2.5,2.5,2.5s2.49-1.12158,2.49-2.5-1.11158-2.5-2.49-2.5c-.65625,0-1.24969,.25952-1.69617,.67468l-3.02362-2.15973c.07312-.16364,.13251-.33502,.16919-.51495h6.10126c.23254,1.1394,1.24231,2,2.44934,2,1.37842,0,2.49-1.12158,2.49-2.5s-1.11158-2.5-2.49-2.5Zm1.5,3c0,.55225-.44769,1-1,1h-1c-.55231,0-1-.44775-1-1v-1c0-.55231,.44769-1,1-1h1c.55231,0,1,.44769,1,1v1Zm-7-5v-1c0-.55231,.44769-1,1-1h1c.55231,0,1,.44769,1,1v1c0,.55225-.44769,1-1,1h-1c-.55231,0-1-.44775-1-1Zm1,8h1c.55231,0,1,.44769,1,1v1c0,.55225-.44769,1-1,1h-1c-.55231,0-1-.44775-1-1v-1c0-.55231,.44769-1,1-1Z"/><path fill="none" d="M0 0h16v16H0z"/></svg>

<svg xmlns="http://www.w3.org/2000/svg" viewBox="0 0 16 16"><path d="M13.5 6c-1.207 0-2.217.86-2.45 2h-6.1a2.47 2.47 0 0 0-.17-.514l3.024-2.16A2.49 2.49 0 0 0 9.5 6c1.378 0 2.49-1.122 2.49-2.5S10.878 1 9.5 1 7 2.122 7 3.5c0 .362.08.704.22 1.015l-3.024 2.16A2.484 2.484 0 0 0 2.5 6C1.122 6 0 7.122 0 8.5S1.122 11 2.5 11c.656 0 1.25-.259 1.696-.674l3.024 2.16c-.14.31-.22.652-.22 1.014C7 14.878 8.122 16 9.5 16s2.49-1.122 2.49-2.5S10.878 11 9.5 11c-.656 0-1.25.26-1.696.675L4.78 9.515c.073-.164.133-.335.17-.515h6.1c.233 1.14 1.243 2 2.45 2 1.378 0 2.49-1.122 2.49-2.5S14.878 6 13.5 6zM15 9a1 1 0 0 1-1 1h-1a1 1 0 0 1-1-1V8a1 1 0 0 1 1-1h1a1 1 0 0 1 1 1v1zM8 4V3a1 1 0 0 1 1-1h1a1 1 0 0 1 1 1v1a1 1 0 0 1-1 1H9a1 1 0 0 1-1-1zm1 8h1a1 1 0 0 1 1 1v1a1 1 0 0 1-1 1H9a1 1 0 0 1-1-1v-1a1 1 0 0 1 1-1z"/><path fill="none" d="M0 0h16v16H0z"/></svg>
